icons/health_worker_form_fill.svg

<svg width="48" height="48" viewBox="0 0 48 48" fill="none" xmlns="http://www.w3.org/2000/svg">
<path d="M17 31V29H19V31H17Z" fill="black"/>
<path fill-rule="evenodd" clip-rule="evenodd" d="M20 4C18.3431 4 17 5.34315 17 7H13C11.3431 7 10 8.34315 10 10V41C10 42.6569 11.3431 44 13 44H35C36.6569 44 38 42.6569 38 41V10C38 8.34315 36.6569 7 35 7H31C31 5.34315 29.6569 4 28 4H20ZM19 7C19 6.44772 19.4477 6 20 6H28C28.5523 6 29 6.44772 29 7V9C29 9.55228 28.5523 10 28 10H20C19.4477 10 19 9.55228 19 9V7ZM16 20C15.4477 20 15 20.4477 15 21C15 21.5523 15.4477 22 16 22H23C23.5523 22 24 21.5523 24 21C24 20.4477 23.5523 20 23 20H16ZM15 16C15 15.4477 15.4477 15 16 15H31.5C32.0523 15 32.5 15.4477 32.5 16C32.5 16.5523 32.0523 17 31.5 17H16C15.4477 17 15 16.5523 15 16ZM15 28C15 27.4477 15.4477 27 16 27H20C20.5523 27 21 27.4477 21 28V32C21 32.5523 20.5523 33 20 33H16C15.4477 33 15 32.5523 15 32V28ZM28 32C29.6575 32 31 30.6575 31 29C31 27.3425 29.6575 26 28 26C26.3425 26 25 27.3425 25 29C25 30.6575 26.3425 32 28 32ZM22 36.5001C22 34.3842 25.9975 33.3182 28 33.3182C30.0025 33.3182 34 34.3842 34 36.5001V38.9999H22V36.5001Z" fill="black"/>
</svg>

<svg
  xmlns="http://www.w3.org/2000/svg"
  width="24"
  height="24"
  viewBox="0 0 24 24"
  fill="none"
  stroke="currentColor"
  stroke-width="2"
  stroke-linecap="round"
  stroke-linejoin="round"
>
  <path d="M17 31v-2h2v2z" />
  <path
    fill-rule="evenodd"
    d="M20 4a3 3 0 0 0-3 3h-4a3 3 0 0 0-3 3v31a3 3 0 0 0 3 3h22a3 3 0 0 0 3-3V10a3 3 0 0 0-3-3h-4a3 3 0 0 0-3-3zm-1 3a1 1 0 0 1 1-1h8a1 1 0 0 1 1 1v2a1 1 0 0 1-1 1h-8a1 1 0 0 1-1-1zm-3 13a1 1 0 1 0 0 2h7a1 1 0 1 0 0-2zm-1-4a1 1 0 0 1 1-1h15.5a1 1 0 1 1 0 2H16a1 1 0 0 1-1-1m0 12a1 1 0 0 1 1-1h4a1 1 0 0 1 1 1v4a1 1 0 0 1-1 1h-4a1 1 0 0 1-1-1zm13 4a3 3 0 1 0 0-6 3 3 0 1 0 0 6m-6 4.5c0-2.116 3.997-3.182 6-3.182s6 1.066 6 3.182V39H22z"
    clip-rule="evenodd"
  />
</svg>
